X:1
T:A Chat With Your Mother (F-Word)
M:4/4
L:1/4
K:D
 D/2E/2| F D E F| E C D E| D B, C D| ^C A, D| E| F D E F| E C D E|\
 D B, C B,| A, z| A A| B B A G| A A G F| G G F E| F z| A, A,| D D D D|\
 D E F G| _B G c B| A3 z| A F G E| F E D z/2 A/2| A F G E| F E D z/2 A,/2|\
 B, D C E| D F E G| A A G F| F E z3/2 A/2| A F G E| F D A, A,| A F G E|\
 F/2D/2 z z||
